!!!!SEGMENT: pl-kk--kk-i-382--082_anonim--offertorium-nro-23.krn
!!!cenid: 18xx:1584
!!!COM: Anonim
!!!COM-rismid: pe30004985
!!!CDT:
!!!CNT:
!!!OTL: Offertorium Nro 23
!!!PDT:
!!!AGN: Sacred
!!!SMS-siglum: PL-Kk
!!!SMS-shelfmark: Kk.I.382
!!!SMS-shelfwork: 082 W
!!!SMS-variant:
!!!SMS-altvar:
!!!NIFC-rismid: 1001142294
!!!URL-scan: http://repozytorium.nifc.pl/skany/pl-kk-nut--i-382
!!!ONB-nifc: UWAGA: Offertoria od skanu 0041 (S/T1), 0113 (T2), 0185 (A/B1), 0262 (B2)
!!!ONB-nifc: UWAGA: obsada: S/T1, A/B1, T2, B2. Skany 0048, 0195, 0122, 0271
**kern	**text	**kern	**text	**kern	**text	**kern	**text
*part4	*part4	*part3	*part3	*part2	*part2	*part1	*part1
*staff4	*staff4	*staff3	*staff3	*staff2	*staff2	*staff1	*staff1
*I"Basso II	*	*I"Tenore II	*	*I"Alto vel Basso I	*	*I"Soprano vel Tenore I	*
*I'B. II	*	*I'T II	*	*I'A	*	*I'S	*
*clefF4	*	*clefC4	*	*clefC3	*	*clefC1	*
*k[]	*	*k[]	*	*k[]	*	*k[]	*
*C:	*	*C:	*	*C:	*	*C:	*
*M4/4	*	*M4/4	*	*M4/4	*	*M4/4	*
*met(C.)	*	*met(C.)	*	*met(C.)	*	*met(C.)	*
=1	=1	=1	=1	=1	=1	=1	=1
*all\right	*	*all\right	*	*all\right	*	*all\right	*
*2\right	*	*2\right	*	*2\right	*	*2\right	*
!LO:TX:a:t=Nro. 23.	!	!LO:TX:a:t=Nro 23	!	!LO:TX:a:t=Nro 23.	!	!LO:TX:a:t=Nro 23.	!
2C/	Pan-	2c\	Pan-	2e\	Pan-	2cc\	Pan-
2C/	-ge	2c\	-ge	2g\	-ge	2ee\	-ge
=2	=2	=2	=2	=2	=2	=2	=2
2.C/	lin-	2.c\	lin-	2.g\	lin-	2.ee\	lin-
4E\	-qva	4G/	-qva	4e\	-qva	4cc\	-qva
=3	=3	=3	=3	=3	=3	=3	=3
2G\	glo-	2G/	glo-	2d\	glo-	2b\	glo-
2GG/	-ri-	2G/	-ri-	(4e\	-ri-	(4cc\	-ri-
.	.	.	.	4f\)	.	4dd\)	.
=4	=4	=4	=4	=4	=4	=4	=4
2C/	-o-	2G/	-o-	2f\	-o-	2dd\	-o-
2C/	-si	2c\	-si	2e\	-si	2cc\	-si
=5	=5	=5	=5	=5	=5	=5	=5
2.F\	Cor-	2.c\	cor-	2.f\	cor-	2.a\	cor-
4F\	-po-	4c\	-po-	4f\	-po-	4a\	-po-
=6	=6	=6	=6	=6	=6	=6	=6
2E\	-ris	2c\	-ris	2g\	-ris	2g\	-ris
2C/	mi-	2c\	mis-	2e\	mis-	2cc\	mi-
!	!	!	!	!	!	!LO:LB:g=original	!
=7	=7	=7	=7	=7	=7	=7	=7
2.D\	-ste-	(2c\	-te-	2.d\	-te-	2.f/	-ste-
.	.	4B\)	.	.	.	.	.
4G\	-ri-	4B\	-ri-	4d\	-ri-	4f/	-ri-
=8	=8	=8	=8	=8	=8	=8	=8
2.C/	-um,	2.c\	-um	2.c\	-um	2.e/	-um
4r	.	4r	.	4r	.	4r	.
!LO:LB:g=original	!	!LO:LB:g=original	!	!LO:LB:g=original	!	!	!
=9	=9	=9	=9	=9	=9	=9	=9
2E\	san-	2B\	san-	2g#X\	san-	2ee\	san-
2D\	-qvi-	2B\	-qvi-	2g#\	-qui-	2ee\	-qui-
=10	=10	=10	=10	=10	=10	=10	=10
2C/	-nis	2c\	-nis	2a\	-nis	2ee\	-nis-
2A\	que	2A\	que	2e\	que	2cc\	-que
=11	=11	=11	=11	=11	=11	=11	=11
2F\	pre-	2A\	pre-	2d\	pre-	2cc\	pre-
2F\	-ti-	(4B\	-ti-	2d#X\	-ti-	(4b\	-ti-
.	.	4c\)	.	.	.	4a\)	.
=12	=12	=12	=12	=12	=12	=12	=12
2E\	-o-	2c\	-o-	2e\	-o-	2a\	-o-
2E\	-si	2B\	-si	2e\	-si	2g#X\	-si
=13	=13	=13	=13	=13	=13	=13	=13
2D\	quem	2B\	quem	2g#X\	quem	2ffn\	quem
2D\	in	2B\	in	2g#\	in	2ff\	in
!	!	!	!	!	!	!LO:LB:g=original	!
=14	=14	=14	=14	=14	=14	=14	=14
2C/	mun-	2c\	mun-	2.a\	mun-	2ee\	mun-
2D/	-di	2f\	-di	.	.	(4ff\	-di
.	.	.	.	4b\	-di	4dd\)	.
=15	=15	=15	=15	=15	=15	=15	=15
2E\	pre-	2.e\	pre-	2a\	pre-	2cc\	pre-
2E\	-ti-	.	.	2g#X\	-ti-	2b\	-ti-
.	.	4d\	-ti-	.	.	.	.
=16	=16	=16	=16	=16	=16	=16	=16
2.A\	-um	2.c\	-um	2.a\	-um	2.a\	-um
4r	.	4r	.	4r	.	4r	.
=17	=17	=17	=17	=17	=17	=17	=17
2F#X\	fruc-	2d\	fruc-	2a\	fruc-	2dd\	fruc-
2F#\	-tus	2c\	-tus	2a\	-tus	2dd\	-tus
!LO:LB:g=original	!	!LO:LB:g=original	!	!LO:LB:g=original	!	!	!
=18	=18	=18	=18	=18	=18	=18	=18
2G\	ven-	2B\	ven-	2gn\	ven-	2dd\	ven-
2G\	-tris	2d\	-tris	2g\	-tris	2b\	-tris
=19	=19	=19	=19	=19	=19	=19	=19
2E\	ge-	2e\	ge-	2g\	ge-	2cc\	ge-
2F#X\	-ne-	2d\	-ne-	2a\	-ne-	2dd\	-ne-
=20	=20	=20	=20	=20	=20	=20	=20
2G\	-ro-	2d\	-ro-	2a\	-ro-	2cc\	-ro-
2GG/	-si	2d\	-si	2g\	-si	2b\	-si
!	!	!	!	!	!	!LO:LB:g=original	!
=21	=21	=21	=21	=21	=21	=21	=21
2BB/	rex	2d\	rex	2g\	rex	2ffn\	rex
2BB/	ef	2d\	ef	2g\	ef	2ff\	ef-
=22	=22	=22	=22	=22	=22	=22	=22
2C/	fu-	2c\	fu-	2g\	fu-	2ee\	-fu-
2F\	-dit	2d\	-dit	2a\	-dit	(4ff\	-dit
.	.	.	.	.	.	4dd\)	.
=23	=23	=23	=23	=23	=23	=23	=23
2G\	gen-	2e\	gen-	2g\	gen-	2cc\	gen-
2G\	-ti-	2d\	-ti-	2g\	-ti-	(4b\	-ti-
.	.	.	.	.	.	4cc\)	.
=24	=24	=24	=24	=24	=24	=24	=24
2.F#X\	-um	2.d\	-um	2.a\	-um	2.dd\	-um
4r	.	4r	.	4r	.	4r	.
=25	=25	=25	=25	=25	=25	=25	=25
2.G\	rex	2.d\	rex	2.b\	rex	2.ff\	rex
4G#X\	ef	4d\	ef	4b\	ef	4ff\	ef-
=26	=26	=26	=26	=26	=26	=26	=26
2A\	fu-	2.c\	fu-	2cc\	fu-	2ee\	-fu-
2Fn\	-dit	.	.	(4a\	-dit	(4ff\	-dit
.	.	4A\	-dit	4f\)	.	4dd\)	.
=27	=27	=27	=27	=27	=27	=27	=27
2G\	gen-	2G/	gen-	2e\	gen-	2cc\	gen-
2GG/	-ti-	2B\	-ti-	2f\	-ti-	(4ee\	-ti-
.	.	.	.	.	.	4dd\)	.
=28	=28	=28	=28	=28	=28	=28	=28
1C	-um.	1c	-um.	1e	-um.	1cc	-um.
==	==	==	==	==	==	==	==
*-	*-	*-	*-	*-	*-	*-	*-
!!!system-decoration: [(s1,s2,s3,s4)]
!!!ENC: Marta Lawrence
!!!END: 2021-02-13
!!!ENC:Berenika Jozajtis
!!!END:2021-02-01
